docs/.gitbook/assets/icon-plus-16@light.svg

<svg width="32" height="32" viewBox="0 0 16 16" fill="none" xmlns="http://www.w3.org/2000/svg">
<rect x="0" y="0" width="16" height="16" fill="#fff"/>
<path fill-rule="evenodd" clip-rule="evenodd" d="M8 3C8.41421 3 8.75 3.33579 8.75 3.75V7.25H12.25C12.6642 7.25 13 7.58579 13 8C13 8.41421 12.6642 8.75 12.25 8.75H8.75V12.25C8.75 12.6642 8.41421 13 8 13C7.58579 13 7.25 12.6642 7.25 12.25V8.75L3.75 8.75C3.33579 8.75 3 8.41421 3 8C3 7.58579 3.33579 7.25 3.75 7.25L7.25 7.25V3.75C7.25 3.33579 7.58579 3 8 3Z" fill="#000"/>
</svg>

<svg xmlns="http://www.w3.org/2000/svg" width="32" height="32" fill="none" viewBox="0 0 16 16"><path fill="#fff" d="M0 0h16v16H0z"/><path fill="#000" fill-rule="evenodd" d="M8 3a.75.75 0 0 1 .75.75v3.5h3.5a.75.75 0 0 1 0 1.5h-3.5v3.5a.75.75 0 0 1-1.5 0v-3.5h-3.5a.75.75 0 0 1 0-1.5h3.5v-3.5A.75.75 0 0 1 8 3" clip-rule="evenodd"/></svg>
